24x24/apps/mail.ru-cloud.svg

<svg xmlns="http://www.w3.org/2000/svg" width="24" height="24" version="1">
 <path style="opacity:0.2" d="m 12.498047,4.4999984 c -1.20926,9.25e-4 -2.279823,0.513169 -3.2207032,1.2226562 C 8.8639263,5.5990962 8.4394348,5.5005373 8.0019531,5.4999984 H 8 c -2.4615921,0 -4.5,2.0384079 -4.5,4.5000012 v 0.0039 0.002 c 1.687e-4,0.05258 0.025336,0.101823 0.027344,0.154296 C 2.6477897,11.077537 1.9998044,12.190512 2,13.5 c 0,2.737734 2.2622655,5 5,5 0.8574733,3.89e-4 1.6565495,-0.275167 2.390625,-0.681641 0.81485,0.401458 1.682559,0.679806 2.605469,0.681641 H 12 12.0039 c 0.799911,-0.0016 1.563755,-0.216469 2.292969,-0.523438 0.69579,0.308731 1.430211,0.522442 2.201172,0.523438 H 16.5 C 19.513877,18.5 22,16.013877 22,13 22,10.315618 19.992396,8.1547233 17.431641,7.6914046 16.54424,5.8108223 14.668515,4.5020011 12.501953,4.4999984 H 12.5 Z"/>
 <path style="fill:#1da6e8" d="M 12.498047,4 C 11.288787,4.000925 10.218224,4.513169 9.2773438,5.2226562 8.8639263,5.0990978 8.4394348,5.0005389 8.0019531,5 H 8 C 5.5384079,5 3.5,7.0384079 3.5,9.5 V 9.50391 9.50586 C 3.5001687,9.55844 3.525336,9.6076839 3.527344,9.6601568 2.6477897,10.577537 1.9998044,11.690512 2,13 c 0,2.737734 2.2622655,5 5,5 0.8574733,3.89e-4 1.6565495,-0.275167 2.390625,-0.681641 0.81485,0.401458 1.682559,0.679806 2.605469,0.681641 H 12 12.0039 c 0.799911,-0.0016 1.563755,-0.216469 2.292969,-0.523438 0.69579,0.308731 1.430211,0.522442 2.201172,0.523438 H 16.5 C 19.513877,18 22,15.513877 22,12.5 22,9.815618 19.992396,7.6547249 17.431641,7.1914062 16.54424,5.3108239 14.668515,4.0020027 12.501953,4 H 12.5 Z"/>
 <circle style="opacity:0.2" cx="7" cy="13.5" r="3"/>
 <circle style="fill:#ffe174" cx="7" cy="13" r="3"/>
 <circle style="opacity:0.2" cx="8" cy="10" r="2.5"/>
 <circle style="fill:#ffd338" cx="8" cy="9.5" r="2.5"/>
 <circle style="opacity:0.2" cx="12.5" cy="10" r="3.5"/>
 <circle style="fill:#ffb822" cx="12.5" cy="9.5" r="3.5"/>
 <circle style="opacity:0.2" cx="16.5" cy="13" r="3.5"/>
 <circle style="fill:#ff7c2d" cx="16.5" cy="12.5" r="3.5"/>
 <circle style="opacity:0.2" cx="12" cy="12.5" r="4"/>
 <circle style="fill:#ff972d" cx="12" cy="12" r="4"/>
 <path style="opacity:0.2;fill:#f4f4f7" d="M 12.498047 4 C 11.288787 4.000925 10.218224 4.513169 9.2773438 5.2226562 C 8.8639262 5.0990978 8.4394348 5.0005389 8.0019531 5 L 8 5 C 5.5384079 5 3.5 7.0384079 3.5 9.5 L 3.5 9.5039062 L 3.5 9.5058594 C 3.5001687 9.5584394 3.5253357 9.6076833 3.5273438 9.6601562 C 2.6477895 10.577536 1.9998044 11.690512 2 13 C 2 13.092135 2.0086156 13.182447 2.0136719 13.273438 C 2.0837695 12.062535 2.699422 11.023732 3.5273438 10.160156 C 3.5253357 10.107683 3.5001687 10.058439 3.5 10.005859 L 3.5 10.003906 L 3.5 10 C 3.5 7.5384079 5.5384079 5.5 8 5.5 L 8.0019531 5.5 C 8.4394348 5.5005389 8.8639262 5.5990979 9.2773438 5.7226562 C 10.218224 5.0131691 11.288787 4.500925 12.498047 4.5 L 12.5 4.5 L 12.501953 4.5 C 14.668515 4.5020027 16.54424 5.810824 17.431641 7.6914062 C 19.93371 8.1441069 21.893259 10.221496 21.982422 12.820312 C 21.98872 12.71373 22 12.608029 22 12.5 C 22 9.815618 19.992396 7.6547249 17.431641 7.1914062 C 16.54424 5.3108239 14.668515 4.0020027 12.501953 4 L 12.5 4 L 12.498047 4 z"/>
</svg>

<svg xmlns="http://www.w3.org/2000/svg" width="24" height="24" version="1"><path style="opacity:.2" d="M12.498 4.5c-1.21 0-2.28.513-3.22 1.223-.414-.124-.839-.222-1.276-.223H8c-2.462 0-4.5 2.038-4.5 4.5v.006c0 .052.025.102.027.154C2.647 11.078 2 12.19 2 13.5c0 2.738 2.262 5 5 5 .857 0 1.657-.275 2.39-.682.815.402 1.683.68 2.606.682h.008c.8-.002 1.564-.216 2.293-.523.696.308 1.43.522 2.201.523h.002c3.014 0 5.5-2.486 5.5-5.5 0-2.684-2.008-4.845-4.568-5.309-.888-1.88-2.763-3.189-4.93-3.191H12.5z"/><path style="fill:#1da6e8" d="M12.498 4c-1.21 0-2.28.513-3.22 1.223C8.863 5.099 8.438 5 8.001 5H8C5.538 5 3.5 7.038 3.5 9.5v.006c0 .052.025.102.027.154C2.647 10.578 2 11.69 2 13c0 2.738 2.262 5 5 5 .857 0 1.657-.275 2.39-.682.815.402 1.683.68 2.606.682h.008c.8-.002 1.564-.216 2.293-.523.696.308 1.43.522 2.201.523h.002c3.014 0 5.5-2.486 5.5-5.5 0-2.684-2.008-4.845-4.568-5.309-.888-1.88-2.763-3.189-4.93-3.191H12.5z"/><circle style="opacity:.2" cx="7" cy="13.5" r="3"/><circle style="fill:#ffe174" cx="7" cy="13" r="3"/><circle style="opacity:.2" cx="8" cy="10" r="2.5"/><circle style="fill:#ffd338" cx="8" cy="9.5" r="2.5"/><circle style="opacity:.2" cx="12.5" cy="10" r="3.5"/><circle style="fill:#ffb822" cx="12.5" cy="9.5" r="3.5"/><circle style="opacity:.2" cx="16.5" cy="13" r="3.5"/><circle style="fill:#ff7c2d" cx="16.5" cy="12.5" r="3.5"/><circle style="opacity:.2" cx="12" cy="12.5" r="4"/><circle style="fill:#ff972d" cx="12" cy="12" r="4"/><path style="opacity:.2;fill:#f4f4f7" d="M12.498 4c-1.21 0-2.28.513-3.22 1.223C8.863 5.099 8.438 5 8.001 5H8C5.538 5 3.5 7.038 3.5 9.5v.006c0 .052.025.102.027.154C2.647 10.578 2 11.69 2 13c0 .092.009.182.014.273.07-1.21.685-2.25 1.513-3.113-.002-.052-.027-.102-.027-.154V10c0-2.462 2.038-4.5 4.5-4.5h.002c.437 0 .862.1 1.275.223.941-.71 2.012-1.222 3.221-1.223h.004c2.167.002 4.042 1.31 4.93 3.191 2.502.453 4.461 2.53 4.55 5.13.007-.107.018-.213.018-.321 0-2.684-2.008-4.845-4.568-5.309-.888-1.88-2.763-3.189-4.93-3.191h-.004z"/></svg>
